!!!!SEGMENT: pl-kk--kk-i-6--053_anonim--deo-gratias.krn
!!!cenid: 16xx:1049
!!!COM: Anonim
!!!COM-rismid: pe30004985
!!!CDT:
!!!CNT:
!!!OTL: Deo gratias
!!!PDT:
!!!AGN:
!!!SMS-siglum: PL-Kk
!!!SMS-shelfmark: Kk.I.6
!!!SMS-shelfwork: 053 W
!!!SMS-variant:
!!!SMS-altvar:
!!!NIFC-rismid: 1001136560
!!!URL-scan: http://repozytorium.nifc.pl/skany/pl-kk-nut--i-6
!!!ONB-nifc: UWAGA: C (skan 0086, s. 168), T (skan 0200), B (skan 0313). 2dae Clasis
!!!AIN: 1 bass 1 tenor 1 vox
!!!key:
**kern	**text	**kern	**text	**kern	**text
*part3	*part3	*part2	*part2	*part1	*part1
*staff3	*staff3	*staff2	*staff2	*staff1	*staff1
*Ibass	*	*Itenor	*	*Ivox	*
*I"Basso	*	*I"Tenore	*	*I"Canto	*
*I'B	*	*I'T	*	*I'C	*
*clefF4	*	*clefC4	*	*clefC4	*
*k[]	*	*k[]	*	*k[]	*
*C:	*	*C:	*	*C:	*
*M2/1	*	*M2/1	*	*M2/1	*
=1	=1	=1	=1	=1	=1
!	!	!LO:TX:i:t=2dae Claſsis	!	!LO:TX:i:t=2dae Claſsis	!
1.G\	DE-	1Bn\	DE-	1G/	DE-
!	!	!LO:TX:t=P:problem=kreska pseudotaktowa	!	!	!
.	.	1c\	-O	1A\	-O
!LO:TX:t=P:problem=kreska pseudotaktowa	!	!	!	!	!
!LO:TX:t=P:♮above:problem	!	!	!	!	!
2F#X\	.	.	.	.	.
=2-	=2-	=2-	=2-	=2-	=2-
!	!	!	!	!LO:TX:t=P:problem=kreska pseudotaktowa	!
2G\	-O	2B\	.	1Bn\	.
2Fn\	.	1G/	gra-	.	.
*	*	*	*	*lig	*
2E\	gra-	.	.	1c\	.
!LO:TX:t=P:problem=kreska pseudotaktowa	!	!LO:TX:t=P:problem=kreska pseudotaktowa	!	!	!
2F\	.	2A/	.	.	.
=3-	=3-	=3-	=3-	=3-	=3-
2G\	.	2B\	.	1B\	.
2BBn/	.	2d\	.	.	.
*	*	*	*	*Xlig	*
*	*	*	*	*lig	*
2C/	.	2e\	.	1A\	.
!LO:TX:t=P:problem=kreska pseudotaktowa	!	!LO:TX:t=P:problem=kreska pseudotaktowa	!	!	!
2D/	-ti-	2d\	.	.	.
=4-	=4-	=4-	=4-	=4-	=4-
2GG,</	-as	2d\	.	1G/	.
2G\	DE-	2B\	.	.	.
*	*	*	*	*Xlig	*
*	*	*	*	*lig	*
2F#X\	-O	2A/	.	1A\	.
!LO:TX:t=P:problem=kreska pseudotaktowa	!	!LO:TX:t=P:problem=kreska pseudotaktowa	!	!	!
2D/	.	2d\	.	.	.
=5-	=5-	=5-	=5-	=5-	=5-
!	!	!	!	!LO:TX:t=P:problem=kreska pseudotaktowa	!
2G\	gra-	2B\	.	1B\	.
2BBn/	.	2d\	-ti-	.	.
!	!	!LO:TX:t=P:problem=kreska pseudotaktowa	!	!	!
*	*	*	*	*Xlig	*
*	*	*	*	*lig	*
1.C/	.	2G,</	-as	1E/	.
.	.	1A\	DE-	.	.
=6-	=6-	=6-	=6-	=6-	=6-
.	.	.	.	1F/	.
*	*	*custos:G	*	*	*
*custos:C	*	*	*	*	*
!LO:TX:t=P:problem=kreska pseudotaktowa	!	!	!	!	!
!	!	!LO:TX:t=P:problem=kreska pseudotaktowa	!	!	!
2BB/	.	2B\	.	.	.
*	*	*	*	*Xlig	*
*	*	*	*	*lig	*
!LO:LB:g=original	!	!LO:LB:g=original	!	!	!
2C/	.	2G/	-O	1E/	.
2E\	.	1c\	.	.	.
=7-	=7-	=7-	=7-	=7-	=7-
2F\	.	.	.	1D/	.
2G\	-ti-	2B\	.	.	.
!LO:TX:t=P:problem=kreska pseudotaktowa	!	!	!	!	!
*	*	*	*	*Xlig	*
!	!	!	!	!LO:TX:t=P:problem=kreska pseudotaktowa	!
2C,</	-as	2c\	gra-	1C/	.
2c\	DE-	2e\	.	.	.
=8-	=8-	=8-	=8-	=8-	=8-
*	*	*	*	*lig	*
2Bn\	-O	2d\	.	1G/	gra-
!LO:TX:t=P:problem=kreska pseudotaktowa	!	!LO:TX:t=P:problem=kreska pseudotaktowa	!	!	!
2G\	.	2B\	-ti-	.	.
*	*	*	*	*custos:B	*
!LO:N:acc=-	!	!	!	!	!
2Fn\	gra-	2A,</	-as	1A\	.
2E\	.	2c\	DE-	.	.
*	*	*	*	*Xlig	*
=9-	=9-	=9-	=9-	=9-	=9-
!	!	!LO:TX:t=P:problem=kreska pseudotaktowa	!	!LO:LB:g=original	!
*	*	*	*	*lig	*
2D/	.	1d\	-O	1Bn\	.
!LO:TX:t=P:problem=kreska pseudotaktowa	!	!	!	!	!
2GG/	.	.	.	.	.
!	!	!	!	!LO:TX:t=P:problem=kreska pseudotaktowa	!
2C/	.	2e\	gra-	1c\	.
2Fny\	.	1f\	.	.	.
*	*	*	*	*Xlig	*
=10-	=10-	=10-	=10-	=10-	=10-
*	*	*	*	*lig	*
2BB/	.	.	.	1Bn\	.
!LO:TX:t=P:problem=kreska pseudotaktowa	!	!	!	!	!
2E\	.	1e\	.	.	.
2AA/	.	.	.	1A\	.
2D/	.	1d\	.	.	.
*	*	*	*	*Xlig	*
=11-	=11-	=11-	=11-	=11-	=11-
*	*	*	*	*lig	*
2GG/	.	.	.	1G/	.
!LO:TX:t=P:problem=kreska pseudotaktowa	!	!	!	!	!
2C/	.	1c\	.	.	.
2F\	.	.	.	1A\	.
!	!	!LO:TX:t=P:problem=kreska pseudotaktowa	!	!	!
2AA/	.	2c\	-ti-	.	.
=12-	=12-	=12-	=12-	=12-	=12-
2BB-X/	.	2d,<\	-as	1G/	.
*	*	*custos:c	*	*	*
*custos:F	*	*	*	*	*
!LO:TX:t=P:problem=kreska pseudotaktowa	!	!	!	!	!
!	!	!LO:TX:t=P:problem=kreska pseudotaktowa	!	!	!
2C/	.	2c\	DE-	.	.
*	*	*	*	*Xlig	*
*	*	*	*	*lig	*
!LO:LB:g=original	!	!LO:LB:g=original	!	!	!
2F\	.	2c\	-O	1F/	.
2D/	.	2d\	gra-	.	.
=13-	=13-	=13-	=13-	=13-	=13-
!	!	!	!	!LO:TX:t=P:problem=kreska pseudotaktowa	!
2C/	.	2e\	.	1E/	.
!LO:TX:t=P:problem=kreska pseudotaktowa	!	!	!	!	!
2E\	.	4c\	.	.	.
!	!	!LO:TX:t=P:problem=kreska pseudotaktowa	!	!	!
.	.	4B\	.	.	.
*	*	*	*	*Xlig	*
2.D/	.	2.A/	.	2.F#X/	.
!LO:TX:t=P:problem=kreska pseudotaktowa	!	!	!	!	!
4D/	-ti-	4A/	-ti-	4F#/	-ti-
=14-	=14-	=14-	=14-	=14-	=14-
0GG/l	as	0B\l	-as	0G/;l	-as
==	==	==	==	==	==
*-	*-	*-	*-	*-	*-
!!!system-decoration: [(s1,s2,s3)]
!!!ENC: Andrzej Gręziak
!!!END: 2021-10-24
!!!RDF**kern: l = terminal long
!!!RDF**kern: < = below
!!!EED: Andrzej Borzym
!!!EST: 2021-10-26
